build/img/icon-visa.svg

<svg width="44" height="14" viewBox="0 0 44 14" fill="none" xmlns="http://www.w3.org/2000/svg">
<path d="M16.7082 0.247239L10.9474 13.7875H7.18922L4.35432 2.98109C4.18244 2.3171 4.03308 2.07274 3.51007 1.79198C2.65516 1.33441 1.24338 0.906487 0.00244141 0.640282L0.0861445 0.247239H6.13683C6.90683 0.247239 7.60018 0.752386 7.77652 1.62704L9.27441 9.46299L12.9725 0.247239H16.7082ZM21.7888 0.247239L18.8492 13.7875H15.2935L18.2334 0.247239H21.7888ZM31.4337 9.36664C31.4485 5.79369 26.4195 5.59539 26.4523 3.99901C26.4643 3.51367 26.9335 2.99701 27.9607 2.86493C28.4694 2.80007 29.875 2.74842 31.4671 3.47117L32.09 0.598116C31.2345 0.2933 30.1337 0 28.7643 0C25.2495 0 22.7771 1.83939 22.7573 4.47537C22.7343 6.42517 24.5233 7.51184 25.8688 8.16126C27.2546 8.8244 27.7193 9.25064 27.713 9.84333C27.703 10.7519 26.6061 11.154 25.5864 11.1689C23.7982 11.1969 22.7616 10.6928 21.9347 10.3133L21.2893 13.2815C22.1212 13.6571 23.6543 13.9834 25.2423 14C28.9788 14 31.4227 12.1816 31.4337 9.36664ZM40.715 13.7875H44.0024L41.1304 0.247239H38.0973C37.4133 0.247239 36.8383 0.638419 36.5833 1.23975L31.2483 13.7875H34.9819L35.7225 11.7649H40.2841L40.715 13.7875ZM36.7464 8.99019L38.6185 3.90536L39.6939 8.99019H36.7464Z" fill="#1A1F71"/>
</svg>

<svg width="44" height="14" fill="none" xmlns="http://www.w3.org/2000/svg"><path d="M16.708.247l-5.76 13.54h-3.76L4.354 2.982c-.172-.664-.32-.908-.844-1.189C2.655 1.334 1.243.906.002.64L.086.247h6.05c.77 0 1.464.505 1.64 1.38l1.498 7.836L12.973.247h3.735zm5.08 0l-2.939 13.54h-3.556l2.94-13.54h3.556zm9.646 9.12c.014-3.573-5.015-3.772-4.982-5.368.012-.485.481-1.002 1.509-1.134.508-.065 1.914-.117 3.506.606L32.09.598A9.712 9.712 0 0028.764 0c-3.514 0-5.987 1.84-6.007 4.475-.023 1.95 1.766 3.037 3.112 3.686 1.386.663 1.85 1.09 1.844 1.682-.01.909-1.107 1.311-2.127 1.326-1.788.028-2.824-.476-3.651-.856l-.646 2.968c.832.376 2.365.702 3.953.719 3.737 0 6.18-1.818 6.192-4.633zm9.281 4.42h3.287L41.13.248h-3.033c-.684 0-1.259.391-1.514.993l-5.335 12.548h3.734l.74-2.023h4.562l.431 2.022zM36.746 8.99l1.872-5.085 1.076 5.085h-2.948z" fill="#1A1F71"/></svg>
